X:1
T:Title
%%score { ( 1 3 ) | ( 2 4 ) }
L:1/8
M:4/4
K:D
V:1 treble nm="Grand Piano"
V:3 treble 
V:2 bass 
V:4 bass 
V:1
 z4 z2[Q:1/4=100] A2 | z4 [EA]2 z2 | [DB]6 [DB]2 | [E,CE]2 [A,CE]2[K:treble] [A,DA]2 [B,EG]2 | %4
[M:3/4] [DF]2 E2 z2 |[M:1/4] A2 |[M:4/4] [DB]2 [DB]2 [CA]2 [B,G]-[B,EG] | [A,DF]6 [A,CE]2 | %8
 [A,DF]2 [B,D^G]2 [A,EA]2 [FB]2 |[M:3/4] z2 B2 z2 |[M:1/4] [CA]2 |[M:4/4] z4 z2 [E=c]2 | B6 B2 | %13
 z4 z2 [Fd]2 |[M:3/4] c6 |[M:1/4] A2 |[M:4/4] B2 A2 [GB]2 [Ec]2 | [Fd]6 [A,DA]2 | %18
 [A,EA]2 [A,DF]2[K:bass] [A,DE]2 [E,CE]2 |[M:7/4] [F,A,D]6 z2 z2 z4 |[M:4/4] [G,B,D]4 [F,A,D]4 |] %21
V:2
 z4 z2 [D,F,D]2 | [D,A,D]2 [F,A,]2 .[C,A,]2 [D,F,D]2 | [G,,G,]6 [G,,G,]2 | A,,2 A,,G,, F,,2 G,,2 | %4
[M:3/4] z2 C2 [D,F,]2 |[M:1/4] [D,F,D]2 |[M:4/4] [G,,G,]2 [G,,G,]2 [A,,E,]2 B,,C, | D,6 A,,2 | %8
 D,2 B,,2 C,2 [D,A,]2 |[M:3/4] A,2 z2 z2 |[M:1/4] [A,,E,]2 | %11
[M:4/4] [D,F,]2 [E,G,]2 [D,A,]2 [E,G,]F, | [G,B,D]6 [G,B,D]2 | %13
 [^G,B,E]2 [F,A,^D]2 [E,B,]2 [F,A,]G, |[M:3/4] [A,CE]6 |[M:1/4] [F,D]2 | %16
[M:4/4] [G,DG]2 [F,D]2 [E,G,]2 [E,G,]2 | [B,,B,]6 F,2 | C,2 D,2 A,,2 A,,2 |[M:7/4] D,6 z2 z2 z4 | %20
[M:4/4] G,,4 D,4 |] %21
V:3
 x8 | F2 D2 z G, A2 | x8 | x4[K:treble] x4 |[M:3/4] A,3 G, D2 |[M:1/4] x2 |[M:4/4] z4 z2 .D2 | x8 | %8
 x8 |[M:3/4] c2 z D [CA]2 |[M:1/4] x2 |[M:4/4] [DA]2 [CA]2 [Fd]2 z A, | x8 | B2 B2 [^Ge]2 z B, | %14
[M:3/4] x6 |[M:1/4] x2 |[M:4/4] x8 | x8 | x4[K:bass] x4 |[M:7/4] x14 |[M:4/4] x8 |] %21
V:4
 x8 | x8 | x8 | x8 |[M:3/4] A,,4 z2 |[M:1/4] x2 |[M:4/4] x8 | x8 | x8 | %9
[M:3/4] [E,E]2- [E,^G,E]2 [A,,A,]2 |[M:1/4] x2 |[M:4/4] x8 | x8 | x8 |[M:3/4] x6 |[M:1/4] x2 | %16
[M:4/4] x8 | x8 | x8 |[M:7/4] x14 |[M:4/4] x8 |] %21

